X:1
T:My Savior Walks with Me
T:My Savior Walks with Me
T:Nellie Shorthill Bradshaw
T:Nellie Shorthill Bradshaw, 1912
T:Public Domain Courtesy of the Cyber Hymnal™
T:Public Domain Courtesy of the Cyber Hymnal™
C:Nellie Shorthill Bradshaw
Z:Public Domain
Z:Courtesy of the Cyber Hymnal™
%%score ( 1 2 ) ( 3 4 )
L:1/8
Q:1/4=103
M:6/8
K:Eb
V:1 treble 
V:2 treble 
V:3 bass 
V:4 bass 
V:1
 [EG] | [EG]2 [GB] [^Fc]2 [F=A] | [GB]3 [EG]2 [EG] | [DA]2 [Ad] [Ac]2 [FA] | [EG]3- [EG]2 [GB] | %5
w: 1.~My|Sav- ior walks be-|side me, A-|long life’s rug- ged|way, * On|
w: 2.~My|Sav- ior walks be-|side me, And|will un- to the|end; * He|
w: 3.~My|Sav- ior walks be-|side me, And|would that all might|know * The|
 [Ac]2 [EA] [Ae]2 [Ac] | [GB]2 [^F=A] [GB]2 [EG] | (FB)[Fd] [Fd]2 [Ec] | [DB]3- [DB]2 [AB] | %9
w: moun- tain top, in|val- ley deep, He|lead- * eth me each|day. * Tho’|
w: will my shield and|por- tion be, My|ne- * ver fail- ing|friend. * He|
w: ten- der love and|gra- cious care He|dai- * ly doth be-|stow. * For|
 [Ad]2 [Ac] [GB]2 [FA] | [^Fc]3 [GB]2 [EG] | ([FA][Bd])[Ac] [GB]2 [FA] | [EG]3- [EG]2 E | %13
w: I am sore- ly|tempt- ed, By|sor- * row’s weight pressed|low, * I|
w: who, for one sheep|stray- ing, Would|brave * the fierc- est|blast, * Will|
w: all who will be-|lieve Him And|seek * His par- doning|grace, * He’ll|
 [EG]2 [EG] [DA]2 [DA] | [E=A]2 [EA] [EB]2 [GB] | [Ac]2 [Ac] (cd)[_Ae] | [Ad]3- [Ad]2 || %17
w: need but stretch my|grop- ing hand, My|Sav- ior’s love * to|know. *|
w: sure- ly be my|shep- herd true, And|guide me home * at|last. *|
w: drive the clouds of|gloom a- way And|show His smil- * ing|face. *|
"^Refrain" [AB] | [Ae]2 [Gd] [Gc]2 [EG] | A3- [DA]2 [FA] | [Bd]2 [Ac] [DF]2 [Dc] | B3- [GB]2 [FB] | %22
w: |||||
w: Oh|yes, He walks with|me, His grace|* is full and|free; He bears|
w: |||||
 [Ee]2 [Ee] [Fd]2 [FG] | [Ec]2 [Ec] [EB]2 [Ee] | (eB)[Ec] [DG]2 [DF] | E3- E2 |] %26
w: ||||
w: * my bur- dens,|soothes my woes, I|know * He walks with|me. *|
w: ||||
V:2
 x | x6 | x6 | x6 | x6 | x6 | x6 | D2 x4 | x6 | x6 | x6 | x6 | x5 E | x6 | x6 | x3 =A2 x | x5 || %17
 x | x6 | F2 E x3 | x6 | E2 A x3 | x6 | x6 | E2 x4 | E3- E2 |] %26
V:3
 [E,B,] | [E,B,]2 [E,B,] [E,=A,]2 [E,C] | [E,B,]3 [E,B,]2 [E,B,] | %3
 [F,B,]2 [B,,B,] [B,,B,]2 [B,,B,] | [E,B,]3- [E,B,]2 [E,E] | [A,E]2 [A,C] [A,C]2 [A,E] | %6
 [E,E]2 [E,C] [E,B,]2 [E,B,] | (B,D)[F,B,] (=A,G,)[F,A,] | [B,,B,]3- [B,,B,]2 [B,,B,] | %9
 [B,,B,]2 [B,,B,] [B,,B,]2 [B,,B,] | [E,=A,]3 [E,B,]2 [E,B,] | [B,,B,]2 [B,,B,] B,2 [D,B,] | %12
 [E,B,]3- [E,B,]2 [E,G,] | [E,B,]2 [E,B,] [F,B,]2 [F,B,] | [^F,C]2 [F,C] [G,B,]2 [E,E] | %15
 [A,E]2 [A,E] (ED) (C/F/) | [B,F]3- [B,F]2 || [B,D] | [E,B,]2 [E,B,] [E,E]2 [E,B,] | %19
 B,3- [B,,B,]2 [B,,B,] | [B,,B,]2 [B,,B,] [B,,A,]2 [B,,A,] | (G,2 C [E,B,]2) [A,D] | %22
 [G,B,]2 [G,B,] [G,=B,]2 [G,B,] | [A,C]2 [C,A,] [E,G,]2 [_C,^F,] | %24
 [B,,G,]2 [A,,A,] [B,,A,]2 [B,,A,] | [E,G,]3- [E,G,]2 |] %26
V:4
 x | x6 | x6 | x6 | x6 | x6 | x6 | F,2 F,2 x2 | x6 | x6 | x6 | x3 (B,,C,) x | x6 | x6 | x6 | %15
 x3 F,2 F, | x5 || x | x6 | D,2 C, x3 | x6 | E,3- x3 | x6 | x6 | x6 | x5 |] %26

